storage/app/icons/phosphoricons/bold/floppy-disk-back-bold.svg

<svg xmlns="http://www.w3.org/2000/svg" fill="currentColor" viewBox="0 0 256 256"><path d="M208 28H83.31a19.86 19.86 0 0 0-14.14 5.86L33.86 69.17A19.86 19.86 0 0 0 28 83.31V208a20 20 0 0 0 20 20h160a20 20 0 0 0 20-20V48a20 20 0 0 0-20-20M92 52h72v20H92Zm112 152H52V85l16-16v7a20 20 0 0 0 20 20h80a20 20 0 0 0 20-20V52h16Zm-76-96a42 42 0 1 0 42 42 42 42 0 0 0-42-42m0 60a18 18 0 1 1 18-18 18 18 0 0 1-18 18"/></svg>

<svg xmlns="http://www.w3.org/2000/svg" viewBox="0 0 256 256" fill="currentColor"><path d="M208,28H83.31a19.86,19.86,0,0,0-14.14,5.86L33.86,69.17A19.86,19.86,0,0,0,28,83.31V208a20,20,0,0,0,20,20H208a20,20,0,0,0,20-20V48A20,20,0,0,0,208,28ZM92,52h72V72H92ZM204,204H52V85L68,69v7A20,20,0,0,0,88,96h80a20,20,0,0,0,20-20V52h16Zm-76-96a42,42,0,1,0,42,42A42,42,0,0,0,128,108Zm0,60a18,18,0,1,1,18-18A18,18,0,0,1,128,168Z"/></svg>
